!!!COM: Alban (Maria Johannes) Berg
!!!OTL: [T439_Ber-w9p77-79m84-90]
**kern	**dynam	**kern	**dynam	**kern	**dynam	**kern	**dynam	**kern	**dynam	**kern	**dynam	**kern	**kern	**dynam	**kern	**dynam	**kern	**dynam	**kern	**dynam	**kern	**dynam	**kern	**dynam	**kern	**dynam	**kern	**dynam	**kern	**dynam	**kern	**dynam	**kern	**dynam	**kern	**dynam	**kern	**dynam	**kern	**dynam	**kern	**dynam	**kern	**dynam	**kern	**dynam	**kern	**dynam	**kern	**dynam	**kern	**dynam
*part26	*part26	*part25	*part25	*part24	*part24	*part23	*part23	*part22	*part22	*part21	*part21	*part20	*part20	*part20	*part19	*part19	*part18	*part18	*part17	*part17	*part16	*part16	*part15	*part15	*part14	*part14	*part13	*part13	*part12	*part12	*part11	*part11	*part10	*part10	*part9	*part9	*part8	*part8	*part7	*part7	*part6	*part6	*part5	*part5	*part4	*part4	*part3	*part3	*part2	*part2	*part1	*part1
*staff27	*	*staff26	*	*staff25	*	*staff24	*	*staff23	*	*staff22	*	*staff21	*staff20	*	*staff19	*	*staff18	*	*staff17	*	*staff16	*	*staff15	*	*staff14	*	*staff13	*	*staff12	*	*staff11	*	*staff10	*	*staff9	*	*staff8	*	*staff7	*	*staff6	*	*staff5	*	*staff4	*	*staff3	*	*staff2	*	*staff1	*
*I"Contrabass	*	*I"Violoncello	*	*I"Viola	*	*I"Violin II	*	*I"Violin I	*	*I"Violin I	*	*I"2 Harps	*	*	*I"Xylophone	*	*I"2 Timpani	*	*I"Triangle	*	*I"Tam-tam	*	*I"Snare Drum	*	*I"Cymbal	*	*I"Bass Drum	*	*I"Tuba	*	*I"Trombone 2. 3.	*	*I"Trombone 1.	*	*I"4 Trumpets in F	*	*I"6 Horns in F	*	*I"Contrabassoon	*	*I"3 Bassoons	*	*I"Bass Clarinet in Bb	*	*I"4 Clarinets in A	*	*I"English Horn	*	*I"3 Oboes	*	*I"4 Flutes	*
*I'Cb.	*	*I'Vc.	*	*I'Vla.	*	*I'Vln. II	*	*I'Vln. I	*	*I'Vln. I	*	*I'Hp.	*	*	*I'Xyl.	*	*I'Timp.	*	*I'Tri.	*	*I'T.-t.	*	*I'S. D.	*	*I'Cym.	*	*I'B. D.	*	*I'Tba.	*	*I'Tbn.	*	*I'Tbn.	*	*I'F Tpt.	*	*I'Hn. 1. 2.	*	*I'Cbsn.	*	*I'Bsn.	*	*I'B. Cl.	*	*I'Cl.	*	*I'Eng. Hn.	*	*I'Ob.	*	*I'Fl.	*
!!pagebreak:original
*	*	*	*	*	*	*	*	*	*	*	*	*	*	*	*	*	*	*	*stria1	*	*stria1	*	*stria1	*	*stria1	*	*stria1	*	*	*	*	*	*	*	*	*	*	*	*	*	*	*	*	*	*	*	*	*	*	*	*	*
*clefF4	*	*clefF4	*	*clefC3	*	*clefG2	*	*clefG2	*	*clefG2	*	*clefF4	*clefG2	*	*clefG2	*	*clefF4	*	*clefX	*	*clefX	*	*clefX	*	*clefX	*	*clefX	*	*clefF4	*	*clefF4	*	*clefC4	*	*clefG2	*	*clefF4	*	*clefF4	*	*clefF4	*	*clefG2	*	*clefG2	*	*clefG2	*	*clefG2	*	*clefG2	*
*ITrd0c0	*	*	*	*	*	*	*	*	*	*	*	*	*	*	*ITrd0c0	*	*	*	*	*	*	*	*	*	*	*	*	*	*	*	*	*	*	*	*ITrd-3c-5	*	*ITrd-3c-5	*	*ITrd0c0	*	*	*	*ITrd1c2	*	*ITrd2c3	*	*ITrd4c7	*	*	*	*	*
*k[]	*	*k[]	*	*k[]	*	*k[]	*	*k[]	*	*k[]	*	*k[]	*k[]	*	*k[]	*	*k[]	*	*k[]	*	*k[]	*	*k[]	*	*k[]	*	*k[]	*	*k[]	*	*k[]	*	*k[]	*	*k[b-]	*	*k[b-]	*	*k[]	*	*k[]	*	*k[b-e-]	*	*k[f#c#g#]	*	*k[b-]	*	*k[]	*	*k[]	*
*	*	*	*	*	*	*	*	*	*	*	*	*	*	*	*	*	*	*	*C:	*	*C:	*	*C:	*	*C:	*	*C:	*	*	*	*	*	*	*	*	*	*	*	*	*	*	*	*	*	*	*	*	*	*	*	*	*
*M4/4	*	*M4/4	*	*M4/4	*	*M4/4	*	*M4/4	*	*M4/4	*	*M4/4	*M4/4	*	*M4/4	*	*M4/4	*	*M4/4	*	*M4/4	*	*M4/4	*	*M4/4	*	*M4/4	*	*M4/4	*	*M4/4	*	*M4/4	*	*M4/4	*	*M4/4	*	*M4/4	*	*M4/4	*	*M4/4	*	*M4/4	*	*M4/4	*	*M4/4	*	*M4/4	*
=1	=1	=1	=1	=1	=1	=1	=1	=1	=1	=1	=1	=1	=1	=1	=1	=1	=1	=1	=1	=1	=1	=1	=1	=1	=1	=1	=1	=1	=1	=1	=1	=1	=1	=1	=1	=1	=1	=1	=1	=1	=1	=1	=1	=1	=1	=1	=1	=1	=1	=1	=1	=1
!	!	!	!	!	!	!	!	!	!	!	!	!	!LO:TX:a:t=II	!	!	!	!	!	!	!	!	!	!	!	!	!	!	!	!	!	!	!	!	!	!	!	!	!	!	!	!	!	!	!	!	!	!	!	!	!	!	!
!	!	!	!	!	!	!	!	!	!	!	!	!	!LO:TX:a:t=I	!	!	!	!	!	!	!	!	!	!	!	!	!	!	!	!	!	!	!	!	!	!LO:TX:a:t=[1.]	!	!LO:TX:a:t=(ohne Dpf.)	!	!	!	!LO:TX:a:t=[1.2. a 2]	!	!	!	!LO:TX:a:t=[1.]	!	!	!	!LO:TX:a:t=[1.]	!	!	!
!	!	!	!	!	!	!	!	!	!	!LO:TX:a:B:t=Allmählich zum nächsten Tempo steigern	!	!	!LO:TX:b:t=[mp]	!	!	!	!	!	!	!	!	!	!	!	!	!	!	!	!	!	!	!	!	!	!LO:TX:b:t=[f]	!	!LO:TX:a:t=a 6	!	!LO:TX:b:t=[p]	!	!LO:TX:b:t=[f]	!	!LO:TX:b:t=[f]	!	!LO:TX:b:t=[f]	!	!LO:TX:b:t=mf legatiss.	!	!LO:TX:b:t=mf legatiss.	!	!LO:TX:a:B:t=Allmählich zum nächsten Tempo steigern	!
.	.	.	.	.	.	.	.	.	.	.	.	.	.	.	.	.	.	.	.	.	.	.	.	.	.	.	.	.	.	.	.	.	.	.	.	.	.	.	.	.	.	.	.	.	.	.	((8qe-X/	.	.	.	.	.
*	*	*	*	*	*	*	*	*	*	*	*	*	*^	*	*	*	*	*	*	*	*	*	*	*	*	*	*	*	*	*	*	*	*	*	*	*	*	*	*	*	*	*	*	*	*	*	*	*	*	*	*	*
1r	.	1r	.	1r	.	1r	.	1r	.	1r	.	4BBn	4Fn 4d-X 4fn	4Gn 4an	.	1r	.	8.r	.	1r	.	1r	.	4r	.	4Re/	mf	2r	.	1r	.	1r	.	1r	.	(16f)	.	([2C-X	p	(8Bn)	.	(8Fn)	.	(16aa)	.	(8GX)	.	8F^L)	.	(8d-X^L	.	1r	.
.	.	.	.	.	.	.	.	.	.	.	.	.	.	.	.	.	.	.	.	.	.	.	.	.	.	.	.	.	.	.	.	.	.	.	.	16r	.	.	.	.	.	.	.	16r	.	.	.	.	.	.	.	.	.
.	.	.	.	.	.	.	.	.	.	.	.	.	.	.	.	.	.	.	.	.	.	.	.	.	.	.	.	.	.	.	.	.	.	.	.	8r	.	.	.	8r	.	8r	.	8r	.	8r	.	8G	.	8fn	<	.	.
.	.	.	.	.	.	.	.	.	.	.	.	.	.	.	.	.	.	16AAn	p	.	.	.	.	.	.	.	.	.	.	.	.	.	.	.	.	.	.	.	.	.	.	.	.	.	.	.	.	.	.	.	.	.	.
.	.	.	.	.	.	.	.	.	.	.	.	4r	4r	4ryy	.	.	.	24GGnLL	<	.	.	.	.	8r	.	4r	.	.	.	.	.	.	.	.	.	4r	.	.	.	4r	.	4r	.	4r	.	8r	.	8A	<	8gn	.	.	.
.	.	.	.	.	.	.	.	.	.	.	.	.	.	.	.	.	.	24AA	.	.	.	.	.	.	.	.	.	.	.	.	.	.	.	.	.	.	.	.	.	.	.	.	.	.	.	.	.	.	.	.	.	.	.
.	.	.	.	.	.	.	.	.	.	.	.	.	.	.	.	.	.	24GG	.	.	.	.	.	.	.	.	.	.	.	.	.	.	.	.	.	.	.	.	.	.	.	.	.	.	.	.	.	.	.	.	.	.	.
!	!	!	!	!	!	!	!	!	!	!	!	!	!	!	!	!	!	!	!	!	!	!	!	!	!	!	!	!	!	!	!	!	!	!	!	!	!	!	!	!	!	!	!	!	!	!	!	!LO:TX:b:i:t=poco	!	!LO:TX:b:i:t=poco	!	!	!
.	.	.	.	.	.	.	.	.	.	.	.	.	.	.	.	.	.	.	.	.	.	.	.	16qRe/	pp	.	.	.	.	.	.	.	.	.	.	.	.	.	.	.	.	.	.	.	.	(16qdd/	p	.	.	.	.	.	.
.	.	.	.	.	.	.	.	.	.	.	.	.	.	.	.	.	.	24AA	[ >	.	.	.	.	8Re/	.	.	.	.	.	.	.	.	.	.	.	.	.	.	.	.	.	.	.	.	.	16ff#^)	.	8c#XJ	.	8bnJ	.	.	.
.	.	.	.	.	.	.	.	.	.	.	.	.	.	.	.	.	.	24GG	.	.	.	.	.	.	.	.	.	.	.	.	.	.	.	.	.	.	.	.	.	.	.	.	.	.	.	.	.	.	.	.	.	.	.
.	.	.	.	.	.	.	.	.	.	.	.	.	.	.	.	.	.	.	.	.	.	.	.	.	.	.	.	.	.	.	.	.	.	.	.	.	.	.	.	.	.	.	.	.	.	16r	.	.	.	.	.	.	.
.	.	.	.	.	.	.	.	.	.	.	.	.	.	.	.	.	.	24AAJJ	.	.	.	.	.	.	.	.	.	.	.	.	.	.	.	.	.	.	.	.	.	.	.	.	.	.	.	.	.	.	.	.	.	.	.
.	.	.	.	.	.	.	.	.	.	.	.	2r	2r	2ryy	.	.	.	16GG	]	.	.	.	.	2r	.	2r	.	4r	.	.	.	.	.	.	.	2r	.	4.C-]	.	2r	.	4r	.	2r	.	2r	.	8cL	[ >	8b-XL	[ >	.	.
.	.	.	.	.	.	.	.	.	.	.	.	.	.	.	.	.	.	16r	.	.	.	.	.	.	.	.	.	.	.	.	.	.	.	.	.	.	.	.	.	.	.	.	.	.	.	.	.	.	.	.	.	.	.
.	.	.	.	.	.	.	.	.	.	.	.	.	.	.	.	.	.	16r	.	.	.	.	.	.	.	.	.	.	.	.	.	.	.	.	.	.	.	.	.	.	.	.	.	.	.	.	.	8F#X	.	8en	.	.	.
.	.	.	.	.	.	.	.	.	.	.	.	.	.	.	.	.	.	16AA	.	.	.	.	.	.	.	.	.	.	.	.	.	.	.	.	.	.	.	.	.	.	.	.	.	.	.	.	.	.	.	.	.	.	.
!	!	!	!	!	!	!	!	!	!	!	!	!	!	!	!	!	!	!	!	!	!	!	!	!	!	!	!	!	!	!	!	!	!	!	!	!	!	!	!	!	!	!LO:TX:a:t=1.	!	!	!	!	!	!	!	!	!	!	!
.	.	.	.	.	.	.	.	.	.	.	.	.	.	.	.	.	.	.	.	.	.	.	.	.	.	.	.	32qRe/	pp	.	.	.	.	.	.	.	.	.	.	.	.	(16qCCn/	ppp	.	.	.	.	.	.	.	.	.	.
.	.	.	.	.	.	.	.	.	.	.	.	.	.	.	.	.	.	24GGLL	<	.	.	.	.	.	.	.	.	8Re/	.	.	.	.	.	.	.	.	.	.	.	.	.	32EEn^)	.	.	.	.	.	8FJ	]	8e-XJ	]	.	.
.	.	.	.	.	.	.	.	.	.	.	.	.	.	.	.	.	.	.	.	.	.	.	.	.	.	.	.	.	.	.	.	.	.	.	.	.	.	.	.	.	.	32r	.	.	.	.	.	.	.	.	.	.	.
.	.	.	.	.	.	.	.	.	.	.	.	.	.	.	.	.	.	24AA	.	.	.	.	.	.	.	.	.	.	.	.	.	.	.	.	.	.	.	.	.	.	.	.	.	.	.	.	.	.	.	.	.	.	.
.	.	.	.	.	.	.	.	.	.	.	.	.	.	.	.	.	.	.	.	.	.	.	.	.	.	.	.	.	.	.	.	.	.	.	.	.	.	.	.	.	.	16r	.	.	.	.	.	.	.	.	.	.	.
.	.	.	.	.	.	.	.	.	.	.	.	.	.	.	.	.	.	24GG	.	.	.	.	.	.	.	.	.	.	.	.	.	.	.	.	.	.	.	.	.	.	.	.	.	.	.	.	.	.	.	.	.	.	.
.	.	.	.	.	.	.	.	.	.	.	.	.	.	.	.	.	.	24AA	[ >	.	.	.	.	.	.	.	.	8r	.	.	.	.	.	.	.	.	.	[8E-X	.	.	.	8r	.	.	.	.	.	8F-X^L	.	8dn^L	.	.	.
.	.	.	.	.	.	.	.	.	.	.	.	.	.	.	.	.	.	24GG	.	.	.	.	.	.	.	.	.	.	.	.	.	.	.	.	.	.	.	.	.	.	.	.	.	.	.	.	.	.	.	.	.	.	.
.	.	.	.	.	.	.	.	.	.	.	.	.	.	.	.	.	.	24AAJJ	]	.	.	.	.	.	.	.	.	.	.	.	.	.	.	.	.	.	.	.	.	.	.	.	.	.	.	.	.	.	.	.	.	.	.
*	*	*	*	*	*	*	*	*	*	*	*	*	*v	*v	*	*	*	*	*	*	*	*	*	*	*	*	*	*	*	*	*	*	*	*	*	*	*	*	*	*	*	*	*	*	*	*	*	*	*	*	*	*	*
=2	=2	=2	=2	=2	=2	=2	=2	=2	=2	=2	=2	=2	=2	=2	=2	=2	=2	=2	=2	=2	=2	=2	=2	=2	=2	=2	=2	=2	=2	=2	=2	=2	=2	=2	=2	=2	=2	=2	=2	=2	=2	=2	=2	=2	=2	=2	=2	=2	=2	=2	=2	=2
!	!	!	!	!	!	!	!	!LO:TX:a:t=[get. 2. Hälfte]	!	!	!	!	!	!	!	!	!	!	!	!	!	!	!	!	!	!	!	!	!	!	!	!	!	!	!	!	!	!	!	!	!	!	!	!	!	!	!	!	!	!	!	!
!	!	!	!	!LO:TX:a:t=(arco)	!	!	!	!LO:TX:a:t=pizz.	!	!	!	!	!	!	!	!	!	!	!	!	!	!	!	!	!	!	!	!	!	!	!	!	!	!	!	!	!	!	!	!	!	!	!	!	!	!	!	!	!	!	!	!
2r	.	1r	.	8r	.	1r	.	4r	.	1r	.	1r	1r	.	1r	.	16GG	.	4r	.	2r	.	4r	.	8r	.	2r	.	2r	.	1r	.	1r	.	1r	.	(2.E-]	.	1r	.	2r	.	1r	.	4r	.	8A-X	<	8f#X	<	4r	.
.	.	.	.	.	.	.	.	.	.	.	.	.	.	.	.	.	16r	.	.	.	.	.	.	.	.	.	.	.	.	.	.	.	.	.	.	.	.	.	.	.	.	.	.	.	.	.	.	.	.	.	.	.
.	.	.	.	(16qEn/	ppp	.	.	.	.	.	.	.	.	.	.	.	.	.	.	.	.	.	.	.	.	.	.	.	.	.	.	.	.	.	.	.	.	.	.	.	.	.	.	.	.	.	.	.	.	.	.	.
.	.	.	.	32G#X)	.	.	.	.	.	.	.	.	.	.	.	.	16r	.	.	.	.	.	.	.	8Re/	ppp	.	.	.	.	.	.	.	.	.	.	.	.	.	.	.	.	.	.	.	.	8B-	.	8g#X	.	.	.
.	.	.	.	32r	.	.	.	.	.	.	.	.	.	.	.	.	.	.	.	.	.	.	.	.	.	.	.	.	.	.	.	.	.	.	.	.	.	.	.	.	.	.	.	.	.	.	.	.	.	.	.	.
.	.	.	.	16r	.	.	.	.	.	.	.	.	.	.	.	.	16AA	.	.	.	.	.	.	.	.	.	.	.	.	.	.	.	.	.	.	.	.	.	.	.	.	.	.	.	.	.	.	.	.	.	.	.
!	!	!	!	!	!	!	!	!	!	!	!	!	!	!	!	!	!	!	!	!	!	!	!LO:TX:b:i:t=poco cresc.	!	!	!	!	!	!	!	!	!	!	!	!	!	!	!	!	!	!	!	!	!	!LO:TX:b:i:t=poco cresc.	!	!	!	!	!	!LO:TX:a:t=[1.]	!
.	.	.	.	4r	.	.	.	8r	.	.	.	.	.	.	.	.	24GGLL	<	8r	.	.	.	16Re/LL	.	4r	.	.	.	.	.	.	.	.	.	.	.	.	.	.	.	.	.	.	.	(16ddKL	.	8dJ	.	8b#XJ	.	8r	.
.	.	.	.	.	.	.	.	.	.	.	.	.	.	.	.	.	24AA	.	.	.	.	.	.	.	.	.	.	.	.	.	.	.	.	.	.	.	.	.	.	.	.	.	.	.	.	.	.	.	.	.	.	.
.	.	.	.	.	.	.	.	.	.	.	.	.	.	.	.	.	.	.	.	.	.	.	16Re/JJ	.	.	.	.	.	.	.	.	.	.	.	.	.	.	.	.	.	.	.	.	.	8ff#J)	.	.	.	.	.	.	.
.	.	.	.	.	.	.	.	.	.	.	.	.	.	.	.	.	24GG	.	.	.	.	.	.	.	.	.	.	.	.	.	.	.	.	.	.	.	.	.	.	.	.	.	.	.	.	.	.	.	.	.	.	.
.	.	.	.	.	.	.	.	(16qbbn/	ppp	.	.	.	.	.	.	.	.	.	16qRe/	pp	.	.	.	.	.	.	.	.	.	.	.	.	.	.	.	.	.	.	.	.	.	.	.	.	.	.	.	.	.	.	(16qbbn/	pp
.	.	.	.	.	.	.	.	16ddd#X^)	.	.	.	.	.	.	.	.	24AA	[ >	8Re/	.	.	.	8r	.	.	.	.	.	.	.	.	.	.	.	.	.	.	.	.	.	.	.	.	.	.	.	8d-XL	[ >	8bnL	[ >	16ddd#X^)	.
.	.	.	.	.	.	.	.	.	.	.	.	.	.	.	.	.	24GG	.	.	.	.	.	.	.	.	.	.	.	.	.	.	.	.	.	.	.	.	.	.	.	.	.	.	.	.	.	.	.	.	.	.	.
.	.	.	.	.	.	.	.	16r	.	.	.	.	.	.	.	.	.	.	.	.	.	.	.	.	.	.	.	.	.	.	.	.	.	.	.	.	.	.	.	.	.	.	.	.	16r	.	.	.	.	.	16r	.
.	.	.	.	.	.	.	.	.	.	.	.	.	.	.	.	.	24AAJJ	.	.	.	.	.	.	.	.	.	.	.	.	.	.	.	.	.	.	.	.	.	.	.	.	.	.	.	.	.	.	.	.	.	.	.
!LO:TX:a:t=(arco)	!	!	!	!	!	!	!	!	!	!	!	!	!	!	!	!	!	!	!	!	!	!	!	!	!	!	!LO:TX:b:i:t=poco cresc.	!	!	!	!	!	!	!	!	!	!	!	!	!	!	!	!	!	!	!	!	!	!	!	!	!
.	.	.	.	.	.	.	.	.	.	.	.	.	.	.	.	.	.	.	.	.	.	.	.	.	.	.	32qRe/	.	.	.	.	.	.	.	.	.	.	.	.	.	(16qCCn/	pp	.	.	.	.	.	.	.	.	.	.
4r	.	.	.	4r	.	.	.	2r	.	.	.	.	.	.	.	.	16GG	]	2r	.	4r	.	4r	.	4r	.	8Re/	.	4r	.	.	.	.	.	.	.	.	.	.	.	32EEn^)	.	.	.	4r	.	8G	.	8fn	.	2r	.
.	.	.	.	.	.	.	.	.	.	.	.	.	.	.	.	.	.	.	.	.	.	.	.	.	.	.	.	.	.	.	.	.	.	.	.	.	.	.	.	.	32r	.	.	.	.	.	.	.	.	.	.	.
.	.	.	.	.	.	.	.	.	.	.	.	.	.	.	.	.	16r	.	.	.	.	.	.	.	.	.	.	.	.	.	.	.	.	.	.	.	.	.	.	.	16r	.	.	.	.	.	.	.	.	.	.	.
.	.	.	.	.	.	.	.	.	.	.	.	.	.	.	.	.	16r	.	.	.	.	.	.	.	.	.	8r	.	.	.	.	.	.	.	.	.	.	.	.	.	8r	.	.	.	.	.	8G-XJ	]	8f-XJ	]	.	.
.	.	.	.	.	.	.	.	.	.	.	.	.	.	.	.	.	16AA	.	.	.	.	.	.	.	.	.	.	.	.	.	.	.	.	.	.	.	.	.	.	.	.	.	.	.	.	.	.	.	.	.	.	.
!	!	!	!	!	!	!	!	!	!	!	!	!	!	!	!	!	!	!	!	!	!LO:TX:a:t=klingenlassen	!	!	!	!	!	!	!	!LO:TX:a:t=(o.D.)	!	!	!	!	!	!	!	!	!	!	!	!	!	!	!	!	!	!	!	!	!	!	!
.	.	.	.	(16qEn/	pp	.	.	.	.	.	.	.	.	.	.	.	.	.	.	.	.	.	.	.	.	.	.	.	.	.	.	.	.	.	.	.	.	.	.	.	.	.	.	.	.	.	.	.	.	.	.	.
8r	.	.	.	32G#X^)	.	.	.	.	.	.	.	.	.	.	.	.	24GGLL	<	.	.	8r	.	8r	.	4Re/	pp	4r	.	8r	.	.	.	.	.	.	.	[4F)	.	.	.	4r	.	.	.	8r	.	8F^L	.	8e-X^L	.	.	.
.	.	.	.	32r	.	.	.	.	.	.	.	.	.	.	.	.	.	.	.	.	.	.	.	.	.	.	.	.	.	.	.	.	.	.	.	.	.	.	.	.	.	.	.	.	.	.	.	.	.	.	.	.
.	.	.	.	.	.	.	.	.	.	.	.	.	.	.	.	.	24AA	.	.	.	.	.	.	.	.	.	.	.	.	.	.	.	.	.	.	.	.	.	.	.	.	.	.	.	.	.	.	.	.	.	.	.
.	.	.	.	16r	.	.	.	.	.	.	.	.	.	.	.	.	.	.	.	.	.	.	.	.	.	.	.	.	.	.	.	.	.	.	.	.	.	.	.	.	.	.	.	.	.	.	.	.	.	.	.	.
.	.	.	.	.	.	.	.	.	.	.	.	.	.	.	.	.	24GG	.	.	.	.	.	.	.	.	.	.	.	.	.	.	.	.	.	.	.	.	.	.	.	.	.	.	.	.	.	.	.	.	.	.	.
16AA-X^	pp	.	.	8r	.	.	.	.	.	.	.	.	.	.	.	.	24AA	[ >	.	.	8Re/	pp	16Re/LL	p	.	.	.	.	16AAA-X^	pp	.	.	.	.	.	.	.	.	.	.	.	.	.	.	(8dd	.	8A	<	8gn	<	.	.
.	.	.	.	.	.	.	.	.	.	.	.	.	.	.	.	.	24GG	.	.	.	.	.	.	.	.	.	.	.	.	.	.	.	.	.	.	.	.	.	.	.	.	.	.	.	.	.	.	.	.	.	.	.
16r	.	.	.	.	.	.	.	.	.	.	.	.	.	.	.	.	.	.	.	.	.	.	16Re/JJ	.	.	.	.	.	16r	.	.	.	.	.	.	.	.	.	.	.	.	.	.	.	.	.	.	.	.	.	.	.
.	.	.	.	.	.	.	.	.	.	.	.	.	.	.	.	.	24AAJJ	]	.	.	.	.	.	.	.	.	.	.	.	.	.	.	.	.	.	.	.	.	.	.	.	.	.	.	.	.	.	.	.	.	.	.
=3	=3	=3	=3	=3	=3	=3	=3	=3	=3	=3	=3	=3	=3	=3	=3	=3	=3	=3	=3	=3	=3	=3	=3	=3	=3	=3	=3	=3	=3	=3	=3	=3	=3	=3	=3	=3	=3	=3	=3	=3	=3	=3	=3	=3	=3	=3	=3	=3	=3	=3	=3	=3
*	*	*	*	*	*	*	*	*	*	*	*	*	*	*	*	*	*	*	*	*	*	*	*	*	*	*	*	*	*	*	*	*	*	*	*	*	*	*	*	*	*^	*	*	*	*^	*	*	*	*^	*	*^	*
!	!	!	!	!	!	!	!	!LO:TX:a:t=2. Hälfte	!	!LO:TX:a:t=1. Hälfte	!	!	!	!	!	!	!	!	!	!	!	!	!	!	!LO:TX:a:t=frethängend	!	!	!	!	!	!	!	!	!	!	!	!LO:TX:a:t=a 6	!	!	!	!LO:TX:a:t=1.2. a 23. tacet	!	!	!	!	!LO:TX:b:t=1.2. 3. 4. tacet	!	!	!	!	!LO:TX:a:t=1.2. 3. tacet	!	!	!	!	!
1r	.	1r	.	4r	.	1r	.	2r	.	1r	.	1r	1r	.	1r	.	16GGn	.	2r	.	1r	.	8Re/	.	4r	.	4r	.	1r	.	1r	.	1r	.	1r	.	2F_	.	1r	.	4r	1r	.	1r	.	8.ff#^)	1r	.	8BX	.	8an	1r	.	2r	1r	.
.	.	.	.	.	.	.	.	.	.	.	.	.	.	.	.	.	16r	.	.	.	.	.	.	.	.	.	.	.	.	.	.	.	.	.	.	.	.	.	.	.	.	.	.	.	.	.	.	.	.	.	.	.	.	.	.	.
.	.	.	.	.	.	.	.	.	.	.	.	.	.	.	.	.	16r	.	.	.	.	.	8r	.	.	.	.	.	.	.	.	.	.	.	.	.	.	.	.	.	.	.	.	.	.	.	.	.	8d#XJ	[	8cc#XJ	.	.	.	.	.
.	.	.	.	.	.	.	.	.	.	.	.	.	.	.	.	.	16AAn	.	.	.	.	.	.	.	.	.	.	.	.	.	.	.	.	.	.	.	.	.	.	.	.	.	.	.	.	16r	.	.	.	.	.	.	.	.	.	.
.	.	.	.	.	.	.	.	.	.	.	.	.	.	.	.	.	.	.	.	.	.	.	.	.	.	.	16qRe/	.	.	.	.	.	.	.	.	.	.	.	.	.	(16qCCn/	.	pp	.	.	.	.	.	.	.	.	.	.	.	.	.
.	.	.	.	8r	.	.	.	.	.	.	.	.	.	.	.	.	24GGLL	<	.	.	.	.	8r	.	8r	.	8Re/	.	.	.	.	.	.	.	.	.	.	.	.	.	16EEn^)	.	.	.	.	8r	.	.	8dL	>	8ccnL	.	[ >	.	.	.
.	.	.	.	.	.	.	.	.	.	.	.	.	.	.	.	.	24AA	.	.	.	.	.	.	.	.	.	.	.	.	.	.	.	.	.	.	.	.	.	.	.	.	.	.	.	.	.	.	.	.	.	.	.	.	.	.	.
.	.	.	.	.	.	.	.	.	.	.	.	.	.	.	.	.	.	.	.	.	.	.	.	.	.	.	.	.	.	.	.	.	.	.	.	.	.	.	.	.	16r	.	.	.	.	.	.	.	.	.	.	.	.	.	.	.
.	.	.	.	.	.	.	.	.	.	.	.	.	.	.	.	.	24GG	.	.	.	.	.	.	.	.	.	.	.	.	.	.	.	.	.	.	.	.	.	.	.	.	.	.	.	.	.	.	.	.	.	.	.	.	.	.	.
.	.	.	.	(16qEn/	p	.	.	.	.	.	.	.	.	.	.	.	.	.	.	.	.	.	.	.	.	.	.	.	.	.	.	.	.	.	.	.	.	.	.	.	.	.	.	.	.	.	.	.	.	.	.	.	.	.	.	.
.	.	.	.	16G#X)	.	.	.	.	.	.	.	.	.	.	.	.	24AA	[ >	.	.	.	.	16Re/LL	mf	8Re/	p	8r	.	.	.	.	.	.	.	.	.	.	.	.	.	8r	.	.	.	.	([8dd	.	.	8A-X	.	8f#X	.	.	.	.	.
.	.	.	.	.	.	.	.	.	.	.	.	.	.	.	.	.	24GG	.	.	.	.	.	.	.	.	.	.	.	.	.	.	.	.	.	.	.	.	.	.	.	.	.	.	.	.	.	.	.	.	.	.	.	.	.	.	.
.	.	.	.	16r	.	.	.	.	.	.	.	.	.	.	.	.	.	.	.	.	.	.	16Re/JJ	.	.	.	.	.	.	.	.	.	.	.	.	.	.	.	.	.	.	.	.	.	.	.	.	.	.	.	.	.	.	.	.	.
.	.	.	.	.	.	.	.	.	.	.	.	.	.	.	.	.	24AAJJ	.	.	.	.	.	.	.	.	.	.	.	.	.	.	.	.	.	.	.	.	.	.	.	.	.	.	.	.	.	.	.	.	.	.	.	.	.	.	.
!	!	!	!	!	!	!	!	!LO:TX:a:t=(pizz.)	!	!	!	!	!	!	!	!	!	!	!	!	!	!	!	!	!	!	!	!	!	!	!	!	!	!	!	!	!	!	!	!	!	!	!	!	!	!	!	!	!	!	!	!	!	!LO:TX:a:t=1.2. 3. 4. tacet	!	!
.	.	.	.	4r	.	.	.	8r	.	.	.	.	.	.	.	.	16GG	]	8.r	.	.	.	16Re/LL	.	4r	.	4r	.	.	.	.	.	.	.	.	.	8F]	.	.	.	4r	.	.	.	.	8dd]	.	.	8GJ	]	8fnJ	.	]	8.r	.	.
.	.	.	.	.	.	.	.	.	.	.	.	.	.	.	.	.	16r	.	.	.	.	.	16Re/J	.	.	.	.	.	.	.	.	.	.	.	.	.	.	.	.	.	.	.	.	.	.	.	.	.	.	.	.	.	.	.	.	.
.	.	.	.	.	.	.	.	(16bbn	pp	.	.	.	.	.	.	.	16r	.	.	.	.	.	8Re/J	.	.	.	.	.	.	.	.	.	.	.	.	.	[4.A	.	.	.	.	.	.	.	.	4ff#^)	.	.	8G-X^L	<	8en^L	.	<	.	.	.
.	.	.	.	.	.	.	.	16ddd#X)	.	.	.	.	.	.	.	.	16AA	.	16Re/	p	.	.	.	.	.	.	.	.	.	.	.	.	.	.	.	.	.	.	.	.	.	.	.	.	.	.	.	.	.	.	.	.	.	(16bbn	.	.
.	.	.	.	8.r	.	.	.	4r	.	.	.	.	.	.	.	.	24GGLL	<	8Re/	.	.	.	4r	.	8.r	.	16r	.	.	.	.	.	.	.	.	.	.	.	.	.	16r	.	.	.	.	.	.	.	8B-	.	8g#X	.	.	16ddd#X^)	.	.
.	.	.	.	.	.	.	.	.	.	.	.	.	.	.	.	.	24AA	.	.	.	.	.	.	.	.	.	.	.	.	.	.	.	.	.	.	.	.	.	.	.	.	.	.	.	.	.	.	.	.	.	.	.	.	.	.	.
.	.	.	.	.	.	.	.	.	.	.	.	.	.	.	.	.	.	.	.	.	.	.	.	.	.	.	16Re/LL	.	.	.	.	.	.	.	.	.	.	.	.	.	(16CCnLL	.	p	.	.	.	.	.	.	.	.	.	.	16r	.	.
.	.	.	.	.	.	.	.	.	.	.	.	.	.	.	.	.	24GG	.	.	.	.	.	.	.	.	.	.	.	.	.	.	.	.	.	.	.	.	.	.	.	.	.	.	.	.	.	.	.	.	.	.	.	.	.	.	.
.	.	.	.	.	.	.	.	.	.	.	.	.	.	.	.	.	24AA	[ >	8r	.	.	.	.	.	.	.	16Re/JJ	.	.	.	.	.	.	.	.	.	.	.	.	.	16EEn^JJ)	.	.	.	.	8r	.	.	8c	[	8a#X	.	[	8r	.	.
.	.	.	.	.	.	.	.	.	.	.	.	.	.	.	.	.	24GG	.	.	.	.	.	.	.	.	.	.	.	.	.	.	.	.	.	.	.	.	.	.	.	.	.	.	.	.	.	.	.	.	.	.	.	.	.	.	.
.	.	.	.	(16En	mp	.	.	.	.	.	.	.	.	.	.	.	.	.	.	.	.	.	.	.	16Re/	mp	16r	.	.	.	.	.	.	.	.	.	.	.	.	.	16r	.	.	.	.	.	.	.	.	.	.	.	.	.	.	.
.	.	.	.	.	.	.	.	.	.	.	.	.	.	.	.	.	24AAJJ	]	.	.	.	.	.	.	.	.	.	.	.	.	.	.	.	.	.	.	.	.	.	.	.	.	.	.	.	.	.	.	.	.	.	.	.	.	.	.
*	*	*	*	*	*	*	*	*	*	*	*	*	*	*	*	*	*	*	*	*	*	*	*	*	*	*	*	*	*	*	*	*	*	*	*	*	*	*	*	*	*v	*v	*	*	*	*v	*v	*	*	*	*	*	*	*v	*v	*
!!pagebreak:original
=4	=4	=4	=4	=4	=4	=4	=4	=4	=4	=4	=4	=4	=4	=4	=4	=4	=4	=4	=4	=4	=4	=4	=4	=4	=4	=4	=4	=4	=4	=4	=4	=4	=4	=4	=4	=4	=4	=4	=4	=4	=4	=4	=4	=4	=4	=4	=4	=4	=4	=4	=4	=4	=4
!	!	!	!	!	!	!	!	!	!	!	!	!	!	!	!	!	!	!	!	!	!	!	!	!	!	!	!	!	!	!	!	!	!	!	!	!	!	!	!	!	!LO:TX:a:t=1.2.3. a 3	!	!LO:TX:a:t=(klingt eineOktave tiefer)	!	!LO:TX:a:t=1.2.3.4.	!	!	!	!	!	!	!	!
4r	.	1r	.	16G#X)	.	1r	.	2r	.	1r	.	4r	1r	.	1r	.	16GG	.	2r	.	4r	.	8r	.	8Re/	.	4r	.	4r	.	1r	.	1r	.	1r	.	2A]	.	4r	.	4r	.	2r	.	8r	.	8eJ	.	8ddnJ	2r	.	2r	.
.	.	.	.	16r	.	.	.	.	.	.	.	.	.	.	.	.	16r	.	.	.	.	.	.	.	.	.	.	.	.	.	.	.	.	.	.	.	.	.	.	.	.	.	.	.	.	.	.	.	.	.	.	.	.
*	*	*	*	*	*	*	*	*	*	*	*	*	*	*	*	*	*	*	*	*	*	*	*tremolo	*	*	*	*	*	*	*	*	*	*	*	*	*	*	*	*	*	*	*	*	*	*	*	*	*	*	*	*	*	*
!	!	!	!	!	!	!	!	!	!	!	!	!	!	!	!	!	!	!	!	!	!	!	!	!	!	!	!	!	!	!	!	!	!	!	!	!	!	!	!	!	!	!	!	!	!LO:TX:a:t=a 4	!	!	!	!	!	!	!	!
.	.	.	.	8r	.	.	.	.	.	.	.	.	.	.	.	.	16r	.	.	.	.	.	32Re/LLL	pp	8r	.	.	.	.	.	.	.	.	.	.	.	.	.	.	.	.	.	.	.	([4.dd	mp	8e-XL	.	8cc#XL	.	.	.	.
.	.	.	.	.	.	.	.	.	.	.	.	.	.	.	.	.	.	.	.	.	.	.	32Re/	.	.	.	.	.	.	.	.	.	.	.	.	.	.	.	.	.	.	.	.	.	.	.	.	.	.	.	.	.	.
.	.	.	.	.	.	.	.	.	.	.	.	.	.	.	.	.	16AAn	<	.	.	.	.	32Re/	.	.	.	.	.	.	.	.	.	.	.	.	.	.	.	.	.	.	.	.	.	.	.	.	.	.	.	.	.	.
.	.	.	.	.	.	.	.	.	.	.	.	.	.	.	.	.	.	.	.	.	.	.	32Re/	.	.	.	.	.	.	.	.	.	.	.	.	.	.	.	.	.	.	.	.	.	.	.	.	.	.	.	.	.	.
!	!	!	!	!	!	!	!	!	!	!	!	!	!LO:TX:a:t=I	!	!	!	!	!	!	!	!	!	!	!	!	!	!	!	!	!	!	!	!	!	!	!	!	!	!	!	!	!	!	!	!	!	!	!	!	!	!	!	!
8r	.	.	.	4r	.	.	.	.	.	.	.	8.r	.	.	.	.	24GGnLL	.	.	.	8.r	.	32Re/	.	4r	.	16Re/LL	.	8.r	.	.	.	.	.	.	.	.	.	8.r	.	(16CCnKL	mp	.	.	.	.	8c-X	.	8an	.	.	.	.
.	.	.	.	.	.	.	.	.	.	.	.	.	.	.	.	.	.	.	.	.	.	.	32Re/	.	.	.	.	.	.	.	.	.	.	.	.	.	.	.	.	.	.	.	.	.	.	.	.	.	.	.	.	.	.
.	.	.	.	.	.	.	.	.	.	.	.	.	.	.	.	.	24AA	.	.	.	.	.	.	.	.	.	.	.	.	.	.	.	.	.	.	.	.	.	.	.	.	.	.	.	.	.	.	.	.	.	.	.	.
.	.	.	.	.	.	.	.	.	.	.	.	.	.	.	.	.	.	.	.	.	.	.	32Re/	.	.	.	16Re/J	.	.	.	.	.	.	.	.	.	.	.	.	.	8EEn^J)	.	.	.	.	.	.	.	.	.	.	.	.
.	.	.	.	.	.	.	.	.	.	.	.	.	.	.	.	.	24GG	[	.	.	.	.	.	.	.	.	.	.	.	.	.	.	.	.	.	.	.	.	.	.	.	.	.	.	.	.	.	.	.	.	.	.	.
.	.	.	.	.	.	.	.	.	.	.	.	.	.	.	.	.	.	.	.	.	.	.	32Re/	.	.	.	.	.	.	.	.	.	.	.	.	.	.	.	.	.	.	.	.	.	.	.	.	.	.	.	.	.	.
16r	.	.	.	.	.	.	.	.	.	.	.	.	.	.	.	.	24AA	>	.	.	.	.	32Re/	.	.	.	8Re/J	.	.	.	.	.	.	.	.	.	.	.	.	.	.	.	.	.	.	.	8B-J	.	8a-XJ	.	.	.	.
.	.	.	.	.	.	.	.	.	.	.	.	.	.	.	.	.	.	.	.	.	.	.	32Re/	.	.	.	.	.	.	.	.	.	.	.	.	.	.	.	.	.	.	.	.	.	.	.	.	.	.	.	.	.	.
.	.	.	.	.	.	.	.	.	.	.	.	.	.	.	.	.	24GG	.	.	.	.	.	.	.	.	.	.	.	.	.	.	.	.	.	.	.	.	.	.	.	.	.	.	.	.	.	.	.	.	.	.	.	.
*	*	*	*	*	*	*	*	*	*	*	*	*8ba	*	*	*	*	*	*	*	*	*	*	*	*	*	*	*	*	*	*	*	*	*	*	*	*	*	*	*	*	*	*	*	*	*	*	*	*	*	*	*	*	*
[16AA-X	p	.	.	.	.	.	.	.	.	.	.	16AAAn	.	mf	.	.	.	.	.	.	16Re/	.	32Re/	.	.	.	.	.	[16AAA-X^	.	.	.	.	.	.	.	.	.	16AAn'	mp	16r	.	.	.	.	.	.	.	.	.	.	.	.
.	.	.	.	.	.	.	.	.	.	.	.	.	.	.	.	.	24AAJJ	.	.	.	.	.	.	.	.	.	.	.	.	.	.	.	.	.	.	.	.	.	.	.	.	.	.	.	.	.	.	.	.	.	.	.	.
.	.	.	.	.	.	.	.	.	.	.	.	.	.	.	.	.	.	.	.	.	.	.	32Re/JJJ	.	.	.	.	.	.	.	.	.	.	.	.	.	.	.	.	.	.	.	.	.	.	.	.	.	.	.	.	.	.
*	*	*	*	*	*	*	*	*	*	*	*	*	*	*	*	*	*tremolo	*	*	*	*	*	*	*	*	*	*	*	*	*	*	*	*	*	*	*	*	*	*	*	*	*	*	*	*	*	*	*	*	*	*	*	*
!	!	!	!	!	!	!	!	!	!	!	!	!	!	!	!	!	!	!	!	!	!	!	!	!	!	!	!	!	!	!	!	!	!	!	!	!	!	!	!	!	!	!	!	!	!	!	!	!	!LO:TX:b:t=2.3.	!	!	!	!
!	!	!	!	!	!	!	!	!	!	!	!	!	!	!	!	!	!	!	!	!	!	!	!	!	!	!	!	!	!	!	!	!	!	!	!	!	!	!	!	!	!	!	!	!	!	!	!LO:TX:b:i:t=)	!	!LO:TX:a:i:t=)	!	!	!	!
!	!	!	!	!	!	!	!	!	!	!	!	!	!	!	!	!	!LO:TX:a:t=12	!	!	!	!	!	!	!	!	!	!	!	!	!	!	!	!	!	!	!	!LO:TX:b:i:t=cresc.	!	!	!	!	!	!	!	!	!	!LO:TX:b:i:t=(	!	!LO:TX:a:i:t=(	!	!	!LO:TX:a:t=1. 2. 3. 4.	!
16AA-]	.	.	.	(16EnKL	mp	.	.	4r	.	.	.	16GGGnLL	.	.	.	.	32GGLLL	p ]	4r	.	2r	.	32Re/LLL	.	16Re/LL	mf	4r	.	16AAA-]	.	.	.	.	.	.	.	[2A-X	.	16GGn'LL	.	4r	.	(8b--XL	p	8dd]	.	8A^L	mf	8gn^L	(8gL	mf p	4r	.
.	.	.	.	.	.	.	.	.	.	.	.	.	.	.	.	.	32AA	.	.	.	.	.	32Re/	.	.	.	.	.	.	.	.	.	.	.	.	.	.	.	.	.	.	.	.	.	.	.	.	.	.	.	.	.	.
16r	.	.	.	8G#X^J)	.	.	.	.	.	.	.	16AAA	.	.	.	.	32GG	.	.	.	.	.	32Re/	.	16Re/J	.	.	.	16r	.	.	.	.	.	.	.	.	.	16AA'	.	.	.	.	.	.	.	.	.	.	.	.	.	.
.	.	.	.	.	.	.	.	.	.	.	.	.	.	.	.	.	32AA	.	.	.	.	.	32Re/	.	.	.	.	.	.	.	.	.	.	.	.	.	.	.	.	.	.	.	.	.	.	.	.	.	.	.	.	.	.
!	!	!	!	!	!	!	!	!	!	!	!	!	!	!	!	!	!	!	!	!	!	!	!	!	!	!	!	!	!	!	!	!	!	!	!	!	!	!	!	!	!	!	!	!	!	!	!LO:TX:b:i:t=cresc.	!	!	!	!	!	!
8r	.	.	.	.	.	.	.	.	.	.	.	16GGG	.	.	.	.	32GG	.	.	.	.	.	32Re/	.	8Re/J	.	.	.	8r	.	.	.	.	.	.	.	.	.	16GG'	.	.	.	8dd-X	.	[4.ff#	.	8c#X	.	8bn	8b	.	.	.
.	.	.	.	.	.	.	.	.	.	.	.	.	.	.	.	.	32AA	.	.	.	.	.	32Re/	.	.	.	.	.	.	.	.	.	.	.	.	.	.	.	.	.	.	.	.	.	.	.	.	.	.	.	.	.	.
.	.	.	.	16r	.	.	.	.	.	.	.	16AAAJJ	.	.	.	.	32GG	.	.	.	.	.	32Re/	.	.	.	.	.	.	.	.	.	.	.	.	.	.	.	16AA'JJ	.	.	.	.	.	.	.	.	.	.	.	.	.	.
.	.	.	.	.	.	.	.	.	.	.	.	.	.	.	.	.	32AA	.	.	.	.	.	32Re/	.	.	.	.	.	.	.	.	.	.	.	.	.	.	.	.	.	.	.	.	.	.	.	.	.	.	.	.	.	.
!	!	!	!	!	!	!	!	!	!	!	!	!	!	!	!	!	!LO:TX:b:i:t=cresc.	!	!	!	!	!	!	!	!	!	!	!	!	!	!	!	!	!	!	!	!	!	!	!	!	!	!	!	!	!	!	!	!	!	!	!LO:TX:a:t=a 4	!
4r	.	.	.	4r	.	.	.	8r	.	.	.	16GGGLL	.	.	.	.	32GG	.	8r	.	.	.	32Re/	.	4r	.	16Re/LL	p	4r	.	.	.	.	.	.	.	.	.	16GG'LL	.	(8CCnL	mf	8ee-	.	.	.	8e-X	.	8cc#X	8cc#	.	8r	.
.	.	.	.	.	.	.	.	.	.	.	.	.	.	.	.	.	32AA	.	.	.	.	.	32Re/	.	.	.	.	.	.	.	.	.	.	.	.	.	.	.	.	.	.	.	.	.	.	.	.	.	.	.	.	.	.
.	.	.	.	.	.	.	.	.	.	.	.	16AAA	.	.	.	.	32GG	.	.	.	.	.	32Re/	.	.	.	16Re/	.	.	.	.	.	.	.	.	.	.	.	16AA'	.	.	.	.	.	.	.	.	.	.	.	.	.	.
.	.	.	.	.	.	.	.	.	.	.	.	.	.	.	.	.	32AA	.	.	.	.	.	32Re/	.	.	.	.	.	.	.	.	.	.	.	.	.	.	.	.	.	.	.	.	.	.	.	.	.	.	.	.	.	.
.	.	.	.	.	.	.	.	16bbnLL	p	.	.	16GGG	.	.	.	.	32GG	.	16Re/LL	mp	.	.	32Re/	.	.	.	16Re/	.	.	.	.	.	.	.	.	.	.	.	16GG'	.	8EEn	.	8ggJ	.	.	.	8gJ	.	8ee#XJ	8ee#J	.	(16bbnLL	p
.	.	.	.	.	.	.	.	.	.	.	.	.	.	.	.	.	32AA	.	.	.	.	.	32Re/	.	.	.	.	.	.	.	.	.	.	.	.	.	.	.	.	.	.	.	.	.	.	.	.	.	.	.	.	.	.
.	.	.	.	.	.	.	.	16ddd#XJJ	.	.	.	16AAAJJ	.	.	.	.	32GG	.	16Re/JJ	.	.	.	32Re/	.	.	.	16Re/JJ	.	.	.	.	.	.	.	.	.	.	.	16AA'JJ	.	.	.	.	.	.	.	.	.	.	.	.	[16ddd#X^JJ	.
.	.	.	.	.	.	.	.	.	.	.	.	.	.	.	.	.	32AAJJJ	.	.	.	.	.	32Re/JJJ	.	.	.	.	.	.	.	.	.	.	.	.	.	.	.	.	.	.	.	.	.	.	.	.	.	.	.	.	.	.
*	*	*	*	*	*	*	*	*	*	*	*	*	*	*	*	*	*	*	*	*	*	*	*	*	*	*	*	*	*	*	*clefC4	*	*	*	*	*	*	*	*	*	*	*	*	*	*	*	*	*	*	*	*	*	*
=5	=5	=5	=5	=5	=5	=5	=5	=5	=5	=5	=5	=5	=5	=5	=5	=5	=5	=5	=5	=5	=5	=5	=5	=5	=5	=5	=5	=5	=5	=5	=5	=5	=5	=5	=5	=5	=5	=5	=5	=5	=5	=5	=5	=5	=5	=5	=5	=5	=5	=5	=5	=5	=5
*	*	*	*	*	*	*	*	*	*	*	*	*tremolo	*	*	*	*	*	*	*	*	*	*	*	*	*	*	*	*	*	*	*	*	*	*	*	*	*	*	*	*	*	*	*	*	*	*	*	*	*	*	*	*	*
*	*	*	*	*	*	*	*	*	*	*	*	*	*	*	*	*	*	*	*	*	*	*	*	*	*tremolo	*	*	*	*	*	*	*	*	*	*	*	*	*	*	*	*	*	*	*	*	*	*	*	*	*	*	*	*
*	*	*	*	*	*	*	*	*	*	*	*	*	*	*	*	*	*	*	*	*	*	*	*	*	*	*	*tremolo	*	*	*	*	*	*	*	*	*	*	*	*	*	*	*	*	*	*	*	*	*	*	*	*	*	*
*	*	*	*	*	*	*	*	*	*	*	*	*	*	*	*	*	*	*	*	*	*	*	*	*	*	*	*	*	*	*	*	*	*	*	*	*	*	*	*tremolo	*	*	*	*	*	*	*	*	*	*	*	*	*	*
!	!	!	!	!	!	!	!	!	!	!	!	!	!	!	!	!	!	!	!	!	!	!	!	!	!LO:TX:a:t=(trem.)	!	!	!	!	!	!	!	!	!	!	!	!	!	!	!	!	!	!	!	!	!	!	!	!	!	!	!	!
!	!	!	!	!LO:TX:b:t=f cresc.	!	!	!	!	!	!	!	!	!LO:TX:b:i:t=cresc.	!	!	!	!LO:TX:a:t=12	!	!	!	!	!	!LO:TX:b:i:t=cresc.	!	!LO:TX:b:t=pp cresc.	!	!LO:TX:b:i:t=cresc.	!	!	!	!	!	!	!	!LO:TX:a:t=zu 4t mit erhobenem Schalltrichter	!	!	!	!LO:TX:b:i:t=[staccato sempre]	!	!	!	!	!	!	!	!	!	!	!	!	!	!
4r	.	1r	.	(8F-XL	.	1r	.	4r	.	1r	.	32GGGnLLL	1r	.	2r	.	32GGLLL	.	8Re/	.	4r	.	32ReLLL	.	32ReLLL	.	32ReLLL	.	4r	.	1r	.	1r	.	2r	.	2A-]	.	32GGnLLL	.	8FF#X	.	8gg-XL	.	8ff#]	.	8f#XL	.	8eenL	8eeL	.	16ddd#])	.
.	.	.	.	.	.	.	.	.	.	.	.	32AAAn	.	.	.	.	32AA	.	.	.	.	.	32Re	.	32Re	.	32Re	.	.	.	.	.	.	.	.	.	.	.	32AAn	.	.	.	.	.	.	.	.	.	.	.	.	.	.
.	.	.	.	.	.	.	.	.	.	.	.	32GGGn	.	.	.	.	32GG	.	.	.	.	.	32Re	.	32Re	.	32Re	.	.	.	.	.	.	.	.	.	.	.	32GGn	.	.	.	.	.	.	.	.	.	.	.	.	16r	.
.	.	.	.	.	.	.	.	.	.	.	.	32AAAn	.	.	.	.	32AA	.	.	.	.	.	32Re	.	32Re	.	32Re	.	.	.	.	.	.	.	.	.	.	.	32AAn	.	.	.	.	.	.	.	.	.	.	.	.	.	.
!	!	!	!	!	!	!	!	!	!	!	!	!	!	!	!	!	!	!	!	!	!	!	!	!	!	!	!	!	!	!	!	!	!	!	!	!	!	!	!	!	!	!	!	!	!LO:TX:b:i:t=cresc.	!	!	!	!	!	!	!	!
.	.	.	.	8A-X	.	.	.	.	.	.	.	32GGGn	.	.	.	.	32GG	.	8r	.	.	.	32Re	.	32Re	.	32Re	.	.	.	.	.	.	.	.	.	.	.	32GGn	.	8AA#XJ	.	8cc	.	[4.gg#	.	8c	.	8b-X	8b-	.	8r	.
.	.	.	.	.	.	.	.	.	.	.	.	32AAAn	.	.	.	.	32AA	.	.	.	.	.	32Re	.	32Re	.	32Re	.	.	.	.	.	.	.	.	.	.	.	32AAn	.	.	.	.	.	.	.	.	.	.	.	.	.	.
.	.	.	.	.	.	.	.	.	.	.	.	32GGGn	.	.	.	.	32GG	.	.	.	.	.	32Re	.	32Re	.	32Re	.	.	.	.	.	.	.	.	.	.	.	32GGn	.	.	.	.	.	.	.	.	.	.	.	.	.	.
.	.	.	.	.	.	.	.	.	.	.	.	32AAAn	.	.	.	.	32AA	.	.	.	.	.	32Re	.	32Re	.	32Re	.	.	.	.	.	.	.	.	.	.	.	32AAn	.	.	.	.	.	.	.	.	.	.	.	.	.	.
!	!	!	!	!	!	!	!	!LO:TX:b:t=p cresc.	!	!	!	!	!	!	!	!	!	!	!LO:TX:b:t=pp cresc.	!	!	!	!	!	!	!	!	!	!	!	!	!	!	!	!	!	!	!	!	!	!	!	!LO:TX:b:i:t=cresc.	!	!	!	!	!	!	!	!	!	!
8.AA-X	mp	.	.	8B-X	.	.	.	8ccc-XL	.	.	.	32GGGn	.	.	.	.	32GG	.	2.Ret/	.	8Re/	.	32Re	.	32Re	.	32Re	.	8.AAA-X^	.	.	.	.	.	.	.	.	.	32GGn	.	8AAnL	.	8cc-X	.	.	.	8BX	.	8an	8a	.	(8ccc-XL	p
.	.	.	.	.	.	.	.	.	.	.	.	32AAAn	.	.	.	.	32AA	.	.	.	.	.	32Re	.	32Re	.	32Re	.	.	.	.	.	.	.	.	.	.	.	32AAn	.	.	.	.	.	.	.	.	.	.	.	.	.	.
.	.	.	.	.	.	.	.	.	.	.	.	32GGGn	.	.	.	.	32GG	.	.	.	.	.	32Re	.	32Re	.	32Re	.	.	.	.	.	.	.	.	.	.	.	32GGn	.	.	.	.	.	.	.	.	.	.	.	.	.	.
.	.	.	.	.	.	.	.	.	.	.	.	32AAAn	.	.	.	.	32AA	.	.	.	.	.	32Re	.	32Re	.	32Re	.	.	.	.	.	.	.	.	.	.	.	32AAn	.	.	.	.	.	.	.	.	.	.	.	.	.	.
.	.	.	.	8dnJ	.	.	.	8eee-XJ	.	.	.	32GGGn	.	.	.	.	32GG	.	.	.	8r	.	32Re	.	32Re	.	32Re	.	.	.	.	.	.	.	.	.	.	.	32GGn	.	8EE-X	.	8b-J	.	.	.	8B-J	.	8a-XJ)	8a-J	.	8eee-X	.
.	.	.	.	.	.	.	.	.	.	.	.	32AAAn	.	.	.	.	32AA	.	.	.	.	.	32Re	.	32Re	.	32Re	.	.	.	.	.	.	.	.	.	.	.	32AAn	.	.	.	.	.	.	.	.	.	.	.	.	.	.
16r	.	.	.	.	.	.	.	.	.	.	.	32GGGn	.	.	.	.	32GG	.	.	.	.	.	32Re	.	32Re	.	32Re	.	16r	.	.	.	.	.	.	.	.	.	32GGn	.	.	.	.	.	.	.	.	.	.	.	.	.	.
.	.	.	.	.	.	.	.	.	.	.	.	32AAAnJJJ	.	.	.	.	32AAJJJ	.	.	.	.	.	32Re	.	32Re	.	32Re	.	.	.	.	.	.	.	.	.	.	.	32AAnJJJ	.	.	.	.	.	.	.	.	.	.	.	.	.	.
!	!	!	!	!	!	!	!	!	!	!	!	!	!	!	!	!	!LO:TX:a:t=12	!	!	!	!	!	!	!	!	!	!	!	!	!	!	!	!	!	!LO:TX:b:i:t=alles übertönend	!	!	!	!LO:TX:b:i:t=cresc.	!	!LO:TX:b:i:t=cresc.	!	!	!	!	!	!	!	!LO:TX:b:i:t=cresc.	!	!	!	!
2r	.	.	.	8d-XL	.	.	.	8fffnL	.	.	.	32GGGLLL	.	.	4r	.	32GGLLL	.	.	.	2r	.	32Re	.	32Re	.	32Re	.	2r	.	.	.	.	.	4r	.	[2D	.	32GGLLL	.	8DDn	.	8b--XL	.	8gg#]	.	8B--XL	.	(8gnL	8gL	.	8fffn	.
.	.	.	.	.	.	.	.	.	.	.	.	32AAA	.	.	.	.	32AA	.	.	.	.	.	32Re	.	32Re	.	32Re	.	.	.	.	.	.	.	.	.	.	.	32AA	.	.	.	.	.	.	.	.	.	.	.	.	.	.
.	.	.	.	.	.	.	.	.	.	.	.	32GGG	.	.	.	.	32GG	.	.	.	.	.	32Re	.	32Re	.	32Re	.	.	.	.	.	.	.	.	.	.	.	32GG	.	.	.	.	.	.	.	.	.	.	.	.	.	.
.	.	.	.	.	.	.	.	.	.	.	.	32AAA	.	.	.	.	32AA	.	.	.	.	.	32Re	.	32Re	.	32Re	.	.	.	.	.	.	.	.	.	.	.	32AA	.	.	.	.	.	.	.	.	.	.	.	.	.	.
.	.	.	.	8Gn	.	.	.	8aaanJ	.	.	.	32GGG	.	.	.	.	32GG	.	.	.	.	.	32Re	.	32Re	.	32Re	.	.	.	.	.	.	.	.	.	.	.	32GG	.	8DD-XJ	.	8dd-X	.	[4.bb#X	.	8d-X	.	8bn	8b	.	8aaanJ	.
.	.	.	.	.	.	.	.	.	.	.	.	32AAA	.	.	.	.	32AA	.	.	.	.	.	32Re	.	32Re	.	32Re	.	.	.	.	.	.	.	.	.	.	.	32AA	.	.	.	.	.	.	.	.	.	.	.	.	.	.
.	.	.	.	.	.	.	.	.	.	.	.	32GGG	.	.	.	.	32GG	.	.	.	.	.	32Re	.	32Re	.	32Re	.	.	.	.	.	.	.	.	.	.	.	32GG	.	.	.	.	.	.	.	.	.	.	.	.	.	.
.	.	.	.	.	.	.	.	.	.	.	.	32AAA	.	.	.	.	32AA	.	.	.	.	.	32Re	.	32Re	.	32Re	.	.	.	.	.	.	.	.	.	.	.	32AA	.	.	.	.	.	.	.	.	.	.	.	.	.	.
!	!	!	!	!	!	!	!	!	!	!	!	!	!	!	!	!	!	!	!	!	!	!	!	!	!	!	!	!	!	!	!	!	!	!	!	!	!	!	!	!	!	!	!	!	!	!	!	!	!	!	!	!LO:TX:b:i:t=cresc.	!
.	.	.	.	8G-X	.	.	.	8aaa-XL	.	.	.	32GGG	.	.	8r	.	32GG	.	.	.	.	.	32Re	.	32Re	.	32Re	.	.	.	.	.	.	.	8r	.	.	.	32GG	.	8CCnL	.	8ee-	.	.	.	8e-X	.	8cc#X	8cc#	.	8aaa-XL	.
.	.	.	.	.	.	.	.	.	.	.	.	32AAA	.	.	.	.	32AA	.	.	.	.	.	32Re	.	32Re	.	32Re	.	.	.	.	.	.	.	.	.	.	.	32AA	.	.	.	.	.	.	.	.	.	.	.	.	.	.
.	.	.	.	.	.	.	.	.	.	.	.	32GGG	.	.	.	.	32GG	.	.	.	.	.	32Re	.	32Re	.	32Re	.	.	.	.	.	.	.	.	.	.	.	32GG	.	.	.	.	.	.	.	.	.	.	.	.	.	.
.	.	.	.	.	.	.	.	.	.	.	.	32AAA	.	.	.	.	32AA	.	.	.	.	.	32Re	.	32Re	.	32Re	.	.	.	.	.	.	.	.	.	.	.	32AA	.	.	.	.	.	.	.	.	.	.	.	.	.	.
.	.	.	.	8FnJ	.	.	.	8dddn	.	.	.	32GGG	.	.	24anLL	f	32GG	.	.	.	.	.	32Re	.	32Re	.	32Re	.	.	.	.	.	.	.	24a'LL	f	.	.	32GG	.	8EEn	.	8ggJ	.	.	.	8gJ	.	8ee#XJ	8ee#J	.	8dddn	.
.	.	.	.	.	.	.	.	.	.	.	.	32AAA	.	.	.	.	32AA	.	.	.	.	.	32Re	.	32Re	.	32Re	.	.	.	.	.	.	.	.	.	.	.	32AA	.	.	.	.	.	.	.	.	.	.	.	.	.	.
.	.	.	.	.	.	.	.	.	.	.	.	.	.	.	24a	.	.	.	.	.	.	.	.	.	.	.	.	.	.	.	.	.	.	.	24a'	.	.	.	.	.	.	.	.	.	.	.	.	.	.	.	.	.	.
.	.	.	.	.	.	.	.	.	.	.	.	32GGG	.	.	.	.	32GG	.	.	.	.	.	32Re	.	32Re	.	32Re	.	.	.	.	.	.	.	.	.	.	.	32GG	.	.	.	.	.	.	.	.	.	.	.	.	.	.
.	.	.	.	.	.	.	.	.	.	.	.	.	.	.	24aJJ	.	.	.	.	.	.	.	.	.	.	.	.	.	.	.	.	.	.	.	24a'JJ	.	.	.	.	.	.	.	.	.	.	.	.	.	.	.	.	.	.
.	.	.	.	.	.	.	.	.	.	.	.	32AAAJJJ	.	.	.	.	32AAJJJ	.	.	.	.	.	32ReJJJ	.	32ReJJJ	.	32ReJJJ	.	.	.	.	.	.	.	.	.	.	.	32AAJJJ	.	.	.	.	.	.	.	.	.	.	.	.	.	.
=6	=6	=6	=6	=6	=6	=6	=6	=6	=6	=6	=6	=6	=6	=6	=6	=6	=6	=6	=6	=6	=6	=6	=6	=6	=6	=6	=6	=6	=6	=6	=6	=6	=6	=6	=6	=6	=6	=6	=6	=6	=6	=6	=6	=6	=6	=6	=6	=6	=6	=6	=6	=6	=6
!	!	!	!	!	!	!	!	!	!	!	!	!	!LO:TX:a:t=[a 2]	!	!	!	!	!	!	!	!	!	!	!	!	!	!	!	!	!	!	!	!	!	!	!	!	!	!	!	!	!	!	!	!	!	!	!	!	!	!	!	!
!	!	!	!	!	!	!LO:TX:a:t=(arco)	!	!LO:TX:a:t=get.	!	!	!	!	!LO:TX:a:t=beide	!	!	!	!LO:TX:a:t=12	!	!	!	!	!	!	!	!	!	!	!	!	!	!LO:TX:a:t=a 2	!	!	!	!	!	!	!	!	!	!	!	!	!	!	!	!	!	!	!	!	!	!
8r	.	4r	.	8F-XL	.	4r	.	8ddd-X	.	1r	.	32GGGnLLL	1r	.	4an	.	32GGLLL	.	1Re	.	8r	.	32ReLLL	.	32ReLLL	.	32ReLLL	.	8r	.	4r	.	1r	.	4a	.	2D]	.	32GGnLLL	.	8FF#X	.	8gg-XL	.	8bb#X]	.	8f#XL	.	8eenL	8eeL	.	8ddd-X	.
.	.	.	.	.	.	.	.	.	.	.	.	32AAAn	.	.	.	.	32AA	.	.	.	.	.	32Re	.	32Re	.	32Re	.	.	.	.	.	.	.	.	.	.	.	32AAn	.	.	.	.	.	.	.	.	.	.	.	.	.	.
.	.	.	.	.	.	.	.	.	.	.	.	32GGGn	.	.	.	.	32GG	.	.	.	.	.	32Re	.	32Re	.	32Re	.	.	.	.	.	.	.	.	.	.	.	32GGn	.	.	.	.	.	.	.	.	.	.	.	.	.	.
.	.	.	.	.	.	.	.	.	.	.	.	32AAAn	.	.	.	.	32AA	.	.	.	.	.	32Re	.	32Re	.	32Re	.	.	.	.	.	.	.	.	.	.	.	32AAn	.	.	.	.	.	.	.	.	.	.	.	.	.	.
*	*	*	*	*	*	*	*	*	*	*	*	*	*	*	*	*	*	*	*	*	*tremolo	*	*	*	*	*	*	*	*	*	*	*	*	*	*	*	*	*	*	*	*	*	*	*	*	*	*	*	*	*	*	*	*
!	!	!	!	!	!	!	!	!	!	!	!	!	!	!	!	!	!	!	!	!	!LO:TX:b:t=pp cresc.	!	!	!	!	!	!	!	!	!	!	!	!	!	!	!	!	!	!	!	!	!	!	!	!	!	!	!	!	!	!	!	!
!	!	!	!	!	!	!	!	!	!	!	!	!	!	!	!	!	!	!	!	!	!LO:TX:a:t=trem.	!	!	!	!	!	!	!	!	!	!	!	!	!	!	!	!	!	!	!	!	!	!	!	!	!	!	!	!	!	!	!	!
(4AA-X^	mf	.	.	8A-X	.	.	.	8cccnJ	.	.	.	32GGGn	.	.	.	.	32GG	.	.	.	32Re/LLL	.	32Re	.	32Re	.	32Re	.	(4AAA-X^	mf	.	.	.	.	.	.	.	.	32GGn	.	8AA#XJ	.	8cc	.	[4.bb	.	8c	.	8b-X	8b-	.	8cccnJ	.
.	.	.	.	.	.	.	.	.	.	.	.	32AAAn	.	.	.	.	32AA	.	.	.	32Re/	.	32Re	.	32Re	.	32Re	.	.	.	.	.	.	.	.	.	.	.	32AAn	.	.	.	.	.	.	.	.	.	.	.	.	.	.
.	.	.	.	.	.	.	.	.	.	.	.	32GGGn	.	.	.	.	32GG	.	.	.	32Re/	.	32Re	.	32Re	.	32Re	.	.	.	.	.	.	.	.	.	.	.	32GGn	.	.	.	.	.	.	.	.	.	.	.	.	.	.
.	.	.	.	.	.	.	.	.	.	.	.	32AAAn	.	.	.	.	32AA	.	.	.	32Re/	.	32Re	.	32Re	.	32Re	.	.	.	.	.	.	.	.	.	.	.	32AAn	.	.	.	.	.	.	.	.	.	.	.	.	.	.
*	*	*clefC4	*	*	*	*	*	*	*	*	*	*	*	*	*	*	*	*	*	*	*	*	*	*	*	*	*	*	*	*	*	*	*	*	*	*	*	*	*	*	*	*	*	*	*	*	*	*	*	*	*	*	*
!	!	!	!	!	!	!	!	!	!	!	!	!	!	!	!	!	!	!	!	!	!	!	!	!	!	!	!	!	!	!	!LO:TX:b:t=ff Trp. fortsetzend	!	!	!	!LO:TX:b:i:t=Fos. u. Str. durchlassen!	!	!	!	!	!	!	!	!	!	!	!	!	!	!	!	!	!	!
.	.	4cn~u	ff	8B-X	.	4cn	ff	8ccc-XL	.	.	.	32GGGn	.	.	4r	.	32GG	.	.	.	32Re/	.	32Re	.	32Re	.	32Re	.	.	.	4cn^	.	.	.	4r	.	.	.	32GGn	.	8AAnL	.	8cc-X	.	.	.	8BX	.	8an	8a	.	8ccc-XL	.
.	.	.	.	.	.	.	.	.	.	.	.	32AAAn	.	.	.	.	32AA	.	.	.	32Re/	.	32Re	.	32Re	.	32Re	.	.	.	.	.	.	.	.	.	.	.	32AAn	.	.	.	.	.	.	.	.	.	.	.	.	.	.
.	.	.	.	.	.	.	.	.	.	.	.	32GGGn	.	.	.	.	32GG	.	.	.	32Re/	.	32Re	.	32Re	.	32Re	.	.	.	.	.	.	.	.	.	.	.	32GGn	.	.	.	.	.	.	.	.	.	.	.	.	.	.
.	.	.	.	.	.	.	.	.	.	.	.	32AAAn	.	.	.	.	32AA	.	.	.	32Re/	.	32Re	.	32Re	.	32Re	.	.	.	.	.	.	.	.	.	.	.	32AAn	.	.	.	.	.	.	.	.	.	.	.	.	.	.
!LO:TX:b:i:t=cresc.	!	!	!	!	!	!	!	!	!	!	!	!	!	!	!	!	!	!	!	!	!	!	!	!	!	!	!	!	!	!	!	!	!	!	!	!	!	!	!	!	!	!	!	!	!	!	!	!	!	!	!	!	!
4Cn	.	.	.	8dnJ	.	.	.	8eee-X	.	.	.	32GGGn	.	.	.	.	32GG	.	.	.	32Re/	.	32Re	.	32Re	.	32Re	.	4CCn	.	.	.	.	.	.	.	.	.	32GGn	.	8EE-X	.	8b-J	.	.	.	8B-J	.	8a-XJ	8a-J	.	8eee-X	.
.	.	.	.	.	.	.	.	.	.	.	.	32AAAn	.	.	.	.	32AA	.	.	.	32Re/	.	32Re	.	32Re	.	32Re	.	.	.	.	.	.	.	.	.	.	.	32AAn	.	.	.	.	.	.	.	.	.	.	.	.	.	.
.	.	.	.	.	.	.	.	.	.	.	.	32GGGn	.	.	.	.	32GG	.	.	.	32Re/	.	32Re	.	32Re	.	32Re	.	.	.	.	.	.	.	.	.	.	.	32GGn	.	.	.	.	.	.	.	.	.	.	.	.	.	.
.	.	.	.	.	.	.	.	.	.	.	.	32AAAnJJJ	.	.	.	.	32AAJJJ	.	.	.	32Re/JJJ	.	32Re	.	32Re	.	32Re	.	.	.	.	.	.	.	.	.	.	.	32AAnJJJ	.	.	.	.	.	.	.	.	.	.	.	.	.	.
!	!	!	!	!	!	!	!	!	!	!	!	!	!	!	!	!	!LO:TX:a:t=12	!	!	!	!	!	!	!	!	!	!	!	!	!	!	!	!	!	!	!	!	!	!	!	!	!	!	!	!	!	!	!	!	!	!	!	!
.	.	([2an~u	<	8d-XL	.	[2an	<	8fffn	.	.	.	32GGGLLL	.	.	4r	.	32GGLLL	.	.	.	32Re/LLL	.	32Re	.	32Re	.	32Re	.	.	.	[2an^	.	.	.	4r	.	[2C#X	.	32GGLLL	.	8DDn	.	8b--XL	.	8bb]	.	8B--XL	.	8gnL	8gL	.	8fffn	.
.	.	.	.	.	.	.	.	.	.	.	.	32AAA	.	.	.	.	32AA	.	.	.	32Re/	.	32Re	.	32Re	.	32Re	.	.	.	.	.	.	.	.	.	.	.	32AA	.	.	.	.	.	.	.	.	.	.	.	.	.	.
.	.	.	.	.	.	.	.	.	.	.	.	32GGG	.	.	.	.	32GG	.	.	.	32Re/	.	32Re	.	32Re	.	32Re	.	.	.	.	.	.	.	.	.	.	.	32GG	.	.	.	.	.	.	.	.	.	.	.	.	.	.
.	.	.	.	.	.	.	.	.	.	.	.	32AAA	.	.	.	.	32AA	.	.	.	32Re/	.	32Re	.	32Re	.	32Re	.	.	.	.	.	.	.	.	.	.	.	32AA	.	.	.	.	.	.	.	.	.	.	.	.	.	.
!	!	!	!	!	!	!	!	!	!	!	!	!	!	!	!	!	!	!	!	!	!	!	!	!	!	!	!	!	!LO:TX:b:i:t=cresc.	!	!	!	!	!	!	!	!	!	!	!	!	!	!	!	!	!	!	!	!	!	!	!	!
4Dn	.	.	.	8Gn	.	.	.	8aaanJ	.	.	.	32GGG	.	.	.	.	32GG	.	.	.	32Re/	.	32Re	.	32Re	.	32Re	.	4DDn	.	.	.	.	.	.	.	.	.	32GG	.	8DD-XJ	.	8dd-X	.	[4.ffX	.	8d-X	.	8bn	8b	.	8aaanJ	.
.	.	.	.	.	.	.	.	.	.	.	.	32AAA	.	.	.	.	32AA	.	.	.	32Re/	.	32Re	.	32Re	.	32Re	.	.	.	.	.	.	.	.	.	.	.	32AA	.	.	.	.	.	.	.	.	.	.	.	.	.	.
.	.	.	.	.	.	.	.	.	.	.	.	32GGG	.	.	.	.	32GG	.	.	.	32Re/	.	32Re	.	32Re	.	32Re	.	.	.	.	.	.	.	.	.	.	.	32GG	.	.	.	.	.	.	.	.	.	.	.	.	.	.
.	.	.	.	.	.	.	.	.	.	.	.	32AAA	.	.	.	.	32AA	.	.	.	32Re/	.	32Re	.	32Re	.	32Re	.	.	.	.	.	.	.	.	.	.	.	32AA	.	.	.	.	.	.	.	.	.	.	.	.	.	.
.	.	.	.	8G-X	.	.	.	8aaa-XL	.	.	.	32GGG	.	.	8r	.	32GG	.	.	.	32Re/	.	32Re	.	32Re	.	32Re	.	.	.	.	.	.	.	8r	.	.	.	32GG	.	8CCnL	.	8ee-	.	.	.	8e-X	.	8cc#X	8cc#	.	8aaa-XL	.
.	.	.	.	.	.	.	.	.	.	.	.	32AAA	.	.	.	.	32AA	.	.	.	32Re/	.	32Re	.	32Re	.	32Re	.	.	.	.	.	.	.	.	.	.	.	32AA	.	.	.	.	.	.	.	.	.	.	.	.	.	.
.	.	.	.	.	.	.	.	.	.	.	.	32GGG	.	.	.	.	32GG	.	.	.	32Re/	.	32Re	.	32Re	.	32Re	.	.	.	.	.	.	.	.	.	.	.	32GG	.	.	.	.	.	.	.	.	.	.	.	.	.	.
.	.	.	.	.	.	.	.	.	.	.	.	32AAA	.	.	.	.	32AA	.	.	.	32Re/	.	32Re	.	32Re	.	32Re	.	.	.	.	.	.	.	.	.	.	.	32AA	.	.	.	.	.	.	.	.	.	.	.	.	.	.
!	!	!	!	!	!	!	!	!	!	!	!	!	!	!	!	!	!	!	!	!	!	!	!	!	!	!	!	!	!	!	!	!	!	!	!LO:TX:b:i:t=)	!	!	!	!	!	!	!	!	!	!	!	!	!	!	!	!	!	!
!	!	!	!	!	!	!	!	!	!	!	!	!	!	!	!	!	!	!	!	!	!	!	!	!	!	!	!	!	!	!	!	!	!	!	!LO:TX:b:i:t=(	!	!	!	!	!	!	!	!	!	!	!	!	!	!	!	!	!	!
[8F#X	.	.	.	8FnJ	.	.	.	8dddn	.	.	.	32GGG	.	.	24dd-XLL	mf	32GG	.	.	.	32Re/	.	32Re	.	32Re	.	32Re	.	[8FF#X	.	.	.	.	.	24dd-X'LL	mf	.	.	32GG	.	8EEn	.	8ggJ	.	.	.	8gJ	.	8ee#XJ	8ee#J	.	8dddn	.
.	.	.	.	.	.	.	.	.	.	.	.	32AAA	.	.	.	.	32AA	.	.	.	32Re/	.	32Re	.	32Re	.	32Re	.	.	.	.	.	.	.	.	.	.	.	32AA	.	.	.	.	.	.	.	.	.	.	.	.	.	.
.	.	.	.	.	.	.	.	.	.	.	.	.	.	.	24dd-	.	.	.	.	.	.	.	.	.	.	.	.	.	.	.	.	.	.	.	24dd-'	.	.	.	.	.	.	.	.	.	.	.	.	.	.	.	.	.	.
.	.	.	.	.	.	.	.	.	.	.	.	32GGG	.	.	.	.	32GG	.	.	.	32Re/	.	32Re	.	32Re	.	32Re	.	.	.	.	.	.	.	.	.	.	.	32GG	.	.	.	.	.	.	.	.	.	.	.	.	.	.
.	.	.	.	.	.	.	.	.	.	.	.	.	.	.	24dd-JJ	.	.	.	.	.	.	.	.	.	.	.	.	.	.	.	.	.	.	.	24dd-'JJ	.	.	.	.	.	.	.	.	.	.	.	.	.	.	.	.	.	.
.	.	.	.	.	.	.	.	.	.	.	.	32AAAJJJ	.	.	.	.	32AAJJJ	.	.	.	32Re/JJJ	.	32ReJJJ	.	32ReJJJ	.	32ReJJJ	.	.	.	.	.	.	.	.	.	.	.	32AAJJJ	.	.	.	.	.	.	.	.	.	.	.	.	.	.
=7	=7	=7	=7	=7	=7	=7	=7	=7	=7	=7	=7	=7	=7	=7	=7	=7	=7	=7	=7	=7	=7	=7	=7	=7	=7	=7	=7	=7	=7	=7	=7	=7	=7	=7	=7	=7	=7	=7	=7	=7	=7	=7	=7	=7	=7	=7	=7	=7	=7	=7	=7	=7	=7
!	!	!	!	!	!	!	!	!	!	!LO:TX:a:t=(arco)	!	!	!	!	!	!	!LO:TX:a:t=12	!	!	!	!	!	!	!	!	!	!	!	!	!	!	!	!	!	!	!	!	!	!	!	!	!	!	!	!	!	!	!	!	!	!	!	!
8F#]	.	4av]	.	8F-XL	.	4a]	.	8ddd-X	.	4r	.	32GGGnLLL	1r	.	4dd-X	.	32GGLLL	.	1Re	.	32ReLLL	.	32ReLLL	.	32ReLLL	.	32ReLLL	.	8FF#]	.	2.a_	mf > ]	2r	.	4dd-X~	.	2C#]	.	32GGnLLL	.	8FF#X	.	8gg-XL	.	8ff]	.	8f#XL	.	8eenL	8eeL	.	8ddd-X	.
.	.	.	.	.	.	.	.	.	.	.	.	32AAAn	.	.	.	.	32AA	.	.	.	32Re	.	32Re	.	32Re	.	32Re	.	.	.	.	.	.	.	.	.	.	.	32AAn	.	.	.	.	.	.	.	.	.	.	.	.	.	.
.	.	.	.	.	.	.	.	.	.	.	.	32GGGn	.	.	.	.	32GG	.	.	.	32Re	.	32Re	.	32Re	.	32Re	.	.	.	.	.	.	.	.	.	.	.	32GGn	.	.	.	.	.	.	.	.	.	.	.	.	.	.
.	.	.	.	.	.	.	.	.	.	.	.	32AAAn	.	.	.	.	32AA	.	.	.	32Re	.	32Re	.	32Re	.	32Re	.	.	.	.	.	.	.	.	.	.	.	32AAn	.	.	.	.	.	.	.	.	.	.	.	.	.	.
4Fn	.	.	.	8A-X	.	.	.	8cccnJ	.	.	.	32GGGn	.	.	.	.	32GG	.	.	.	32Re	.	32Re	.	32Re	.	32Re	.	4FFn	.	.	.	.	.	.	.	.	.	32GGn	.	8AA#XJ	.	8cc	.	[4.ee	.	8c	.	8b-X	8b-	.	8cccnJ	.
.	.	.	.	.	.	.	.	.	.	.	.	32AAAn	.	.	.	.	32AA	.	.	.	32Re	.	32Re	.	32Re	.	32Re	.	.	.	.	.	.	.	.	.	.	.	32AAn	.	.	.	.	.	.	.	.	.	.	.	.	.	.
.	.	.	.	.	.	.	.	.	.	.	.	32GGGn	.	.	.	.	32GG	.	.	.	32Re	.	32Re	.	32Re	.	32Re	.	.	.	.	.	.	.	.	.	.	.	32GGn	.	.	.	.	.	.	.	.	.	.	.	.	.	.
.	.	.	.	.	.	.	.	.	.	.	.	32AAAn	.	.	.	.	32AA	.	.	.	32Re	.	32Re	.	32Re	.	32Re	.	.	.	.	.	.	.	.	.	.	.	32AAn	.	.	.	.	.	.	.	.	.	.	.	.	.	.
*	*	*clefG2	*	*	*	*	*	*	*	*	*	*	*	*	*	*	*	*	*	*	*	*	*	*	*	*	*	*	*	*	*	*	*	*	*	*	*	*	*	*	*	*	*	*	*	*	*	*	*	*	*	*	*
.	.	2gg#Xu	fff [	8B-X	.	(2gg#Xu	fff [	8ccc-XL	.	(2gg#Xu	fff	32GGGn	.	.	8r	.	32GG	.	.	.	32Re	.	32Re	.	32Re	.	32Re	.	.	.	.	.	.	.	8r	.	.	.	32GGn	.	8AAnL	.	8cc-X	.	.	.	8BX	.	8an	8a	.	8ccc-XL	.
.	.	.	.	.	.	.	.	.	.	.	.	32AAAn	.	.	.	.	32AA	.	.	.	32Re	.	32Re	.	32Re	.	32Re	.	.	.	.	.	.	.	.	.	.	.	32AAn	.	.	.	.	.	.	.	.	.	.	.	.	.	.
.	.	.	.	.	.	.	.	.	.	.	.	32GGGn	.	.	.	.	32GG	.	.	.	32Re	.	32Re	.	32Re	.	32Re	.	.	.	.	.	.	.	.	.	.	.	32GGn	.	.	.	.	.	.	.	.	.	.	.	.	.	.
.	.	.	.	.	.	.	.	.	.	.	.	32AAAn	.	.	.	.	32AA	.	.	.	32Re	.	32Re	.	32Re	.	32Re	.	.	.	.	.	.	.	.	.	.	.	32AAn	.	.	.	.	.	.	.	.	.	.	.	.	.	.
4BBn	.	.	.	8dnJ	.	.	.	8eee-X	.	.	.	32GGGn	.	.	24ffnLL	.	32GG	.	.	.	32Re	.	32Re	.	32Re	.	32Re	.	4BBBn	.	.	.	.	.	24ff'LL	.	.	.	32GGn	.	8EE-X	.	8b-J	.	.	.	8B-J	.	8a-XJ	8a-J	.	8eee-X	.
.	.	.	.	.	.	.	.	.	.	.	.	32AAAn	.	.	.	.	32AA	.	.	.	32Re	.	32Re	.	32Re	.	32Re	.	.	.	.	.	.	.	.	.	.	.	32AAn	.	.	.	.	.	.	.	.	.	.	.	.	.	.
.	.	.	.	.	.	.	.	.	.	.	.	.	.	.	24ff	.	.	.	.	.	.	.	.	.	.	.	.	.	.	.	.	.	.	.	24ff'	.	.	.	.	.	.	.	.	.	.	.	.	.	.	.	.	.	.
.	.	.	.	.	.	.	.	.	.	.	.	32GGGn	.	.	.	.	32GG	.	.	.	32Re	.	32Re	.	32Re	.	32Re	.	.	.	.	.	.	.	.	.	.	.	32GGn	.	.	.	.	.	.	.	.	.	.	.	.	.	.
.	.	.	.	.	.	.	.	.	.	.	.	.	.	.	24ffJJ	.	.	.	.	.	.	.	.	.	.	.	.	.	.	.	.	.	.	.	24ff'JJ	.	.	.	.	.	.	.	.	.	.	.	.	.	.	.	.	.	.
.	.	.	.	.	.	.	.	.	.	.	.	32AAAnJJJ	.	.	.	.	32AAJJJ	.	.	.	32Re	.	32Re	.	32Re	.	32Re	.	.	.	.	.	.	.	.	.	.	.	32AAnJJJ	.	.	.	.	.	.	.	.	.	.	.	.	.	.
!	!	!	!	!	!	!	!	!	!	!	!	!	!	!	!	!	!LO:TX:a:t=12	!	!	!	!	!	!	!	!	!	!	!	!	!	!	!	!	!	!	!	!	!	!	!	!	!	!	!	!	!	!	!	!	!	!	!	!
.	.	.	.	8d-XL	.	.	.	8fffn	.	.	.	32GGGLLL	.	.	4ff	.	32GGLLL	.	.	.	32Re	.	32Re	.	32Re	.	32Re	.	.	.	.	.	4r	.	4ff~	.	2C)	.	32GGLLL	.	8DDn	.	8b--XL	.	8ee]	.	8B--XL	.	8gnL	8gL	.	8fffn	.
.	.	.	.	.	.	.	.	.	.	.	.	32AAA	.	.	.	.	32AA	.	.	.	32Re	.	32Re	.	32Re	.	32Re	.	.	.	.	.	.	.	.	.	.	.	32AA	.	.	.	.	.	.	.	.	.	.	.	.	.	.
.	.	.	.	.	.	.	.	.	.	.	.	32GGG	.	.	.	.	32GG	.	.	.	32Re	.	32Re	.	32Re	.	32Re	.	.	.	.	.	.	.	.	.	.	.	32GG	.	.	.	.	.	.	.	.	.	.	.	.	.	.
.	.	.	.	.	.	.	.	.	.	.	.	32AAA	.	.	.	.	32AA	.	.	.	32Re	.	32Re	.	32Re	.	32Re	.	.	.	.	.	.	.	.	.	.	.	32AA	.	.	.	.	.	.	.	.	.	.	.	.	.	.
4BB-X	.	.	.	8Gn	.	.	.	8aaanJ	.	.	.	32GGG	.	.	.	.	32GG	.	.	.	32Re	.	32Re	.	32Re	.	32Re	.	4BBB-X	.	.	.	.	.	.	.	.	.	32GG	.	8DD-XJ	.	8dd-X	.	4ee-X)	.	8d-X	.	8bn	8b	.	8aaanJ	.
.	.	.	.	.	.	.	.	.	.	.	.	32AAA	.	.	.	.	32AA	.	.	.	32Re	.	32Re	.	32Re	.	32Re	.	.	.	.	.	.	.	.	.	.	.	32AA	.	.	.	.	.	.	.	.	.	.	.	.	.	.
.	.	.	.	.	.	.	.	.	.	.	.	32GGG	.	.	.	.	32GG	.	.	.	32Re	.	32Re	.	32Re	.	32Re	.	.	.	.	.	.	.	.	.	.	.	32GG	.	.	.	.	.	.	.	.	.	.	.	.	.	.
.	.	.	.	.	.	.	.	.	.	.	.	32AAA	.	.	.	.	32AA	.	.	.	32Re	.	32Re	.	32Re	.	32Re	.	.	.	.	.	.	.	.	.	.	.	32AA	.	.	.	.	.	.	.	.	.	.	.	.	.	.
*	*	*	*	*	*	*	*	*	*	*	*	*	*	*	*	*	*	*	*	*	*	*	*	*	*	*	*	*	*	*	*	*	*	*	*	*	*	*	*	*	*	*	*	*	*	*	*	*	*v	*v	*	*	*
*	*	*	*	*	*	*	*	*	*	*	*	*X8ba	*	*	*	*	*	*	*	*	*	*	*	*	*	*	*	*	*	*	*	*	*	*	*	*	*	*	*	*	*	*	*	*	*	*	*	*	*	*	*	*
*	*	*	*	*	*	*	*	*	*	*	*	*	*	*	*	*	*	*	*	*	*	*	*	*	*	*	*	*	*	*	*	*	*	*	*	*	*	*	*	*	*	*	*	*	*	*	*	*	*^	*	*	*
.	.	4ggnv)	.	8G-X	.	4ggnv)	.	8aaa-XL	.	4ggnv)	.	32GGG	.	.	8r	.	32GG	.	.	.	32Re	.	32Re	.	32Re	.	32Re	.	.	.	8aL]	<	8r	.	8r	.	.	.	32GG	.	8CCnL	.	8ee-	.	.	.	8e-X	.	8cc#X	8cc#	.	8aaa-XL	.
.	.	.	.	.	.	.	.	.	.	.	.	32AAA	.	.	.	.	32AA	.	.	.	32Re	.	32Re	.	32Re	.	32Re	.	.	.	.	.	.	.	.	.	.	.	32AA	.	.	.	.	.	.	.	.	.	.	.	.	.	.
.	.	.	.	.	.	.	.	.	.	.	.	32GGG	.	.	.	.	32GG	.	.	.	32Re	.	32Re	.	32Re	.	32Re	.	.	.	.	.	.	.	.	.	.	.	32GG	.	.	.	.	.	.	.	.	.	.	.	.	.	.
.	.	.	.	.	.	.	.	.	.	.	.	32AAA	.	.	.	.	32AA	.	.	.	32Re	.	32Re	.	32Re	.	32Re	.	.	.	.	.	.	.	.	.	.	.	32AA	.	.	.	.	.	.	.	.	.	.	.	.	.	.
!	!	!	!	!	!	!	!	!	!	!	!	!	!	!	!	!	!	!	!	!	!	!	!	!	!	!	!	!	!	!	!	!	!	!	!	!	!	!	!	!	!	!	!	!	!LO:TX:a:t=1.2.3.4.	!	!	!	!	!	!	!	!
8AAn)	.	.	.	8FnJ)	.	.	.	8dddnJ	.	.	.	32GGG	.	.	24bb-XLL	fff	32GG	.	.	.	32Re	.	32Re	.	32Re	.	32Re	.	8AAAn)	.	24b-X'L	ff [	24b-X'LL	fff	24bb-'LL	fff	.	.	32GG	.	8EEnJ)	.	8ggJ)	.	24b-X'LL 24bb-X	fff	8gJ)	.	8ee#XJ)	8ee#J)	.	8dddnJ)	.
.	.	.	.	.	.	.	.	.	.	.	.	32AAA	.	.	.	.	32AA	.	.	.	32Re	.	32Re	.	32Re	.	32Re	.	.	.	.	.	.	.	.	.	.	.	32AA	.	.	.	.	.	.	.	.	.	.	.	.	.	.
.	.	.	.	.	.	.	.	.	.	.	.	.	.	.	24bb-	.	.	.	.	.	.	.	.	.	.	.	.	.	.	.	24b-'	.	24b-'	.	24bb-'	.	.	.	.	.	.	.	.	.	24b-' 24bb-	.	.	.	.	.	.	.	.
.	.	.	.	.	.	.	.	.	.	.	.	32GGG	.	.	.	.	32GG	.	.	.	32Re	.	32Re	.	32Re	.	32Re	.	.	.	.	.	.	.	.	.	.	.	32GG	.	.	.	.	.	.	.	.	.	.	.	.	.	.
.	.	.	.	.	.	.	.	.	.	.	.	.	.	.	24bb-JJ	.	.	.	.	.	.	.	.	.	.	.	.	.	.	.	24b-'JJ	.	24b-'JJ	.	24bb-'JJ	.	.	.	.	.	.	.	.	.	24b-'JJ 24bb-	.	.	.	.	.	.	.	.
.	.	.	.	.	.	.	.	.	.	.	.	32AAAJJJ	.	.	.	.	32AAJJJ	.	.	.	32ReJJJ	.	32ReJJJ	.	32ReJJJ	.	32ReJJJ	.	.	.	.	.	.	.	.	.	.	.	32AAJJJ	.	.	.	.	.	.	.	.	.	.	.	.	.	.
*	*	*	*	*	*	*	*	*	*	*	*	*	*	*	*	*	*	*	*	*	*	*	*	*	*	*	*	*	*	*	*	*	*	*	*	*	*	*	*Xtremolo	*	*	*	*	*	*	*	*	*	*	*	*	*	*
*	*	*	*	*	*	*	*	*	*	*	*	*	*	*	*	*	*	*	*	*	*	*	*	*	*	*	*Xtremolo	*	*	*	*	*	*	*	*	*	*	*	*	*	*	*	*	*	*	*	*	*	*	*	*	*	*
*	*	*	*	*	*	*	*	*	*	*	*	*	*	*	*	*	*	*	*	*	*	*	*	*	*Xtremolo	*	*	*	*	*	*	*	*	*	*	*	*	*	*	*	*	*	*	*	*	*	*	*	*	*	*	*	*
*	*	*	*	*	*	*	*	*	*	*	*	*	*	*	*	*	*	*	*	*	*	*	*Xtremolo	*	*	*	*	*	*	*	*	*	*	*	*	*	*	*	*	*	*	*	*	*	*	*	*	*	*	*	*	*	*
*	*	*	*	*	*	*	*	*	*	*	*	*	*	*	*	*	*	*	*	*	*Xtremolo	*	*	*	*	*	*	*	*	*	*	*	*	*	*	*	*	*	*	*	*	*	*	*	*	*	*	*	*	*	*	*	*
*	*	*	*	*	*	*	*	*	*	*	*	*	*	*	*	*	*Xtremolo	*	*	*	*	*	*	*	*	*	*	*	*	*	*	*	*	*	*	*	*	*	*	*	*	*	*	*	*	*	*	*	*	*	*	*	*
*	*	*	*	*	*	*	*	*	*	*	*	*Xtremolo	*	*	*	*	*	*	*	*	*	*	*	*	*	*	*	*	*	*	*	*	*	*	*	*	*	*	*	*	*	*	*	*	*	*	*	*	*	*	*	*	*
*	*	*	*	*	*	*	*	*	*	*	*	*	*	*	*	*	*	*	*	*	*	*	*	*	*	*	*	*	*	*	*	*	*	*	*	*	*	*	*	*	*	*	*	*	*	*	*	*	*v	*v	*	*	*
=	=	=	=	=	=	=	=	=	=	=	=	=	=	=	=	=	=	=	=	=	=	=	=	=	=	=	=	=	=	=	=	=	=	=	=	=	=	=	=	=	=	=	=	=	=	=	=	=	=	=	=	=
*-	*-	*-	*-	*-	*-	*-	*-	*-	*-	*-	*-	*-	*-	*-	*-	*-	*-	*-	*-	*-	*-	*-	*-	*-	*-	*-	*-	*-	*-	*-	*-	*-	*-	*-	*-	*-	*-	*-	*-	*-	*-	*-	*-	*-	*-	*-	*-	*-	*-	*-	*-	*-
!!!system-decoration: [(s1[(s2,s3)][(s4,s5)][(s6,s7)])][(s8,s9[(s10,s11)]s12)]s13,s14,s15,s16,s17[(s18)]s19[([({(s20,s21)})])][([(s22,s23)]s24,s25,s26,s27)]
